svg/black/bsd.svg

<svg width="32" height="32" viewBox="0 0 32 32" version="1.1" xmlns="http://www.w3.org/2000/svg" xmlns:xlink="http://www.w3.org/1999/xlink"><title>svg/black/bsd</title><desc>Created with Sketch.</desc><g id="black/bsd" stroke="none" stroke-width="1" fill="none" fill-rule="evenodd"><path d="M16,32 C7.163444,32 0,24.836556 0,16 C0,7.163444 7.163444,0 16,0 C24.836556,0 32,7.163444 32,16 C32,24.836556 24.836556,32 16,32 Z M28,15.1272727 L19.9272727,4 L17.9636364,10.4363636 L4,15.1272727 L28,15.1272727 Z M4.10909091,16.6545455 L11.9636364,27.8909091 L13.9272727,21.2363636 L27.8909091,16.6545455 L4.10909091,16.6545455 Z" id="Combined-Shape" fill="#000" fill-rule="nonzero"/></g></svg>

<svg width="32" height="32" viewBox="0 0 32 32" xmlns="http://www.w3.org/2000/svg"><path d="M16 32C7.163 32 0 24.837 0 16S7.163 0 16 0s16 7.163 16 16-7.163 16-16 16zm12-16.873L19.927 4l-1.963 6.436L4 15.127h24zM4.11 16.655l7.854 11.236 1.963-6.655 13.964-4.581H4.109z"/></svg>
